src/assets/img/index/icons/traffic.svg

<svg width="140" height="140" viewBox="0 0 140 140" fill="none"
    xmlns="http://www.w3.org/2000/svg">
    <g filter="url(#filter0_d)">
        <circle cx="70" cy="66" r="50" fill="white"/>
    </g>
    <path d="M87.0815 79.5284L99.3321 92.0347C99.5438 92.2501 99.7118 92.5061 99.8264 92.7879C99.9411 93.0697 100 93.372 100 93.6771C100 93.9823 99.9411 94.2845 99.8264 94.5663C99.7118 94.8481 99.5438 95.1041 99.3321 95.3195C98.9045 95.7552 98.325 95.9999 97.7209 95.9999C97.1167 95.9999 96.5373 95.7552 96.1097 95.3195L84.0059 83.0981" stroke="#A29EC0" stroke-width="2" stroke-linecap="round" stroke-linejoin="round"/>
    <path d="M42.8722 46.9461V36.483L40 39.4152" stroke="#A29EC0" stroke-width="2" stroke-linecap="round" stroke-linejoin="round"/>
    <path d="M50.7458 46.9461C49.9477 46.9461 49.1821 46.6224 48.6178 46.0462C48.0534 45.4701 47.7363 44.6886 47.7363 43.8738V39.0674C47.7363 38.6642 47.8142 38.2649 47.9655 37.8924C48.1168 37.52 48.3385 37.1816 48.6181 36.8967C48.8976 36.6118 49.2294 36.386 49.5944 36.2321C49.9595 36.0782 50.3508 35.9994 50.7458 36V36C51.5427 36 52.3069 36.3232 52.8704 36.8984C53.4339 37.4737 53.7505 38.2539 53.7505 39.0674V43.898C53.7455 44.7082 53.4267 45.4834 52.8637 46.0545C52.3008 46.6256 51.5394 46.9461 50.7458 46.9461V46.9461Z" stroke="#A29EC0" stroke-width="2" stroke-linecap="round" stroke-linejoin="round"/>
    <path d="M61.2599 46.9461V36.483L58.3877 39.4152" stroke="#A29EC0" stroke-width="2" stroke-linecap="round" stroke-linejoin="round"/>
    <path d="M69.1337 46.9461C68.3355 46.9461 67.5701 46.6224 67.0057 46.0462C66.4413 45.4701 66.1243 44.6886 66.1243 43.8738V39.0674C66.1243 38.6642 66.2021 38.2649 66.3534 37.8924C66.5047 37.52 66.7265 37.1816 67.006 36.8967C67.2855 36.6118 67.6173 36.386 67.9824 36.2321C68.3475 36.0782 68.7387 35.9994 69.1337 36V36C69.9289 36.0026 70.6908 36.3269 71.2522 36.9018C71.8136 37.4768 72.1289 38.2556 72.1289 39.0674V43.898C72.1239 44.7065 71.8065 45.4803 71.2456 46.0511C70.6846 46.6219 69.9257 46.9436 69.1337 46.9461V46.9461Z" stroke="#A29EC0" stroke-width="2" stroke-linecap="round" stroke-linejoin="round"/>
    <path d="M42.8722 65.3023V54.8392L40 57.7714" stroke="#A29EC0" stroke-width="2" stroke-linecap="round" stroke-linejoin="round"/>
    <path d="M50.7458 65.3023C49.9477 65.3023 49.1821 64.9786 48.6178 64.4024C48.0534 63.8263 47.7363 63.0448 47.7363 62.23V57.4236C47.7363 57.0204 47.8142 56.6211 47.9655 56.2486C48.1168 55.8762 48.3385 55.5378 48.6181 55.2529C48.8976 54.968 49.2294 54.7422 49.5944 54.5883C49.9595 54.4344 50.3508 54.3556 50.7458 54.3562V54.3562C51.5427 54.3562 52.3069 54.6794 52.8704 55.2546C53.4339 55.8299 53.7505 56.6101 53.7505 57.4236V62.2542C53.7455 63.0644 53.4267 63.8396 52.8637 64.4107C52.3008 64.9818 51.5394 65.3023 50.7458 65.3023V65.3023Z" stroke="#A29EC0" stroke-width="2" stroke-linecap="round" stroke-linejoin="round"/>
    <path d="M80.1455 62.9086C78.8545 61.5613 77.2068 60.6285 75.4046 60.2247C73.6024 59.8208 71.724 59.9636 70 60.6353C71.2937 61.1323 72.4678 61.9076 73.443 62.9086C77.1482 66.6916 77.2618 72.7077 73.7052 76.3433C72.8518 77.2167 71.8314 77.9009 70.7078 78.3531C72.3419 79.011 74.1273 79.1713 75.8485 78.8147C77.5698 78.458 79.1532 77.5997 80.4077 76.3433C83.9643 72.7077 83.8463 66.6916 80.1455 62.9086Z" fill="#B88DFC"/>
    <path d="M85.0466 58.2449L90.9519 52.2163" stroke="#A29EC0" stroke-width="2" stroke-linecap="round" stroke-linejoin="round"/>
    <path d="M79.1414 54.3175L83.1256 50.255" stroke="#A29EC0" stroke-width="2" stroke-linecap="round" stroke-linejoin="round"/>
    <path d="M88.8652 64.2155L92.75 60.2496" stroke="#A29EC0" stroke-width="2" stroke-linecap="round" stroke-linejoin="round"/>
    <path d="M94.2216 48.8831C94.5456 49.2133 94.7664 49.6342 94.8559 50.0925C94.9455 50.5508 94.8999 51.026 94.7249 51.4578C94.5499 51.8896 94.2533 52.2588 93.8727 52.5185C93.4921 52.7782 93.0446 52.9169 92.5868 52.9169C92.129 52.9169 91.6815 52.7782 91.3009 52.5185C90.9203 52.2588 90.6237 51.8896 90.4487 51.4578C90.2737 51.026 90.2281 50.5508 90.3177 50.0925C90.4073 49.6342 90.628 49.2133 90.952 48.8831C91.1665 48.6635 91.4212 48.4894 91.7018 48.3706C91.9823 48.2517 92.2831 48.1906 92.5868 48.1906C92.8905 48.1906 93.1913 48.2517 93.4718 48.3706C93.7523 48.4894 94.0071 48.6635 94.2216 48.8831V48.8831Z" stroke="#A29EC0" stroke-width="2" stroke-linecap="round" stroke-linejoin="round"/>
    <path d="M86.3906 46.917C86.7136 47.2467 86.9336 47.6667 87.0228 48.124C87.1119 48.5813 87.0663 49.0553 86.8915 49.4861C86.7168 49.9169 86.4208 50.2851 86.0411 50.5442C85.6613 50.8033 85.2148 50.9416 84.7581 50.9416C84.3013 50.9416 83.8549 50.8033 83.4751 50.5442C83.0954 50.2851 82.7994 49.9169 82.6246 49.4861C82.4499 49.0553 82.4042 48.5813 82.4934 48.124C82.5826 47.6667 82.8026 47.2467 83.1256 46.917C83.5586 46.4751 84.1458 46.2269 84.7581 46.2269C85.3703 46.2269 85.9575 46.4751 86.3906 46.917V46.917Z" stroke="#A29EC0" stroke-width="2" stroke-linecap="round" stroke-linejoin="round"/>
    <path d="M94.3824 60.9402C95.6577 60.9402 96.6915 59.8848 96.6915 58.5829C96.6915 57.281 95.6577 56.2256 94.3824 56.2256C93.1071 56.2256 92.0732 57.281 92.0732 58.5829C92.0732 59.8848 93.1071 60.9402 94.3824 60.9402Z" stroke="#A29EC0" stroke-width="2" stroke-linecap="round" stroke-linejoin="round"/>
    <path d="M62.6416 81.1177L56.7363 87.1463" stroke="#A29EC0" stroke-width="2" stroke-linecap="round" stroke-linejoin="round"/>
    <path d="M58.7944 75.0891L54.8149 79.1565" stroke="#A29EC0" stroke-width="2" stroke-linecap="round" stroke-linejoin="round"/>
    <path d="M68.4903 85.016L64.6055 88.9819" stroke="#A29EC0" stroke-width="2" stroke-linecap="round" stroke-linejoin="round"/>
    <path d="M55.104 91.175C56.3793 91.175 57.4132 90.1196 57.4132 88.8177C57.4132 87.5157 56.3793 86.4603 55.104 86.4603C53.8288 86.4603 52.7949 87.5157 52.7949 88.8177C52.7949 90.1196 53.8288 91.175 55.104 91.175Z" stroke="#A29EC0" stroke-width="2" stroke-linecap="round" stroke-linejoin="round"/>
    <path d="M51.5456 82.4944C51.869 82.8251 52.2813 83.0505 52.7303 83.1419C53.1792 83.2334 53.6446 83.1868 54.0677 83.0081C54.4907 82.8294 54.8523 82.5267 55.1067 82.1382C55.3611 81.7496 55.4968 81.2927 55.4968 80.8254C55.4968 80.358 55.3611 79.9012 55.1067 79.5127C54.8523 79.1241 54.4907 78.8214 54.0677 78.6427C53.6446 78.464 53.1792 78.4175 52.7303 78.5089C52.2813 78.6004 51.869 78.8257 51.5456 79.1564C51.1136 79.5999 50.8711 80.1999 50.8711 80.8254C50.8711 81.4508 51.1136 82.0509 51.5456 82.4944Z" stroke="#A29EC0" stroke-width="2" stroke-linecap="round" stroke-linejoin="round"/>
    <path d="M62.9681 93.0105C64.2433 93.0105 65.2772 91.9551 65.2772 90.6532C65.2772 89.3513 64.2433 88.2959 62.9681 88.2959C61.6928 88.2959 60.6589 89.3513 60.6589 90.6532C60.6589 91.9551 61.6928 93.0105 62.9681 93.0105Z" stroke="#A29EC0" stroke-width="2" stroke-linecap="round" stroke-linejoin="round"/>
    <path d="M68.4949 85.0305C74.2819 87.3299 80.9727 86.2044 85.501 81.5815C87.657 79.3367 89.125 76.4986 89.7251 73.415C90.3251 70.3314 90.0313 67.136 88.8795 64.2203" stroke="#A29EC0" stroke-width="2" stroke-linecap="round" stroke-linejoin="round"/>
    <path d="M73.8041 82.2964C80.191 82.2964 85.3685 76.7987 85.3685 70.017C85.3685 63.2353 80.191 57.7377 73.8041 57.7377C67.4171 57.7377 62.2395 63.2353 62.2395 70.017C62.2395 76.7987 67.4171 82.2964 73.8041 82.2964Z" stroke="#A29EC0" stroke-width="2" stroke-linecap="round" stroke-linejoin="round"/>
    <path d="M58.79 75.0939C59.6473 77.356 60.9594 79.4097 62.6417 81.1225" stroke="#A29EC0" stroke-width="2" stroke-linecap="round" stroke-linejoin="round"/>
    <path d="M75.3513 53.3273C72.9696 52.9831 70.5421 53.2065 68.2591 53.9801C65.9761 54.7536 63.8996 56.0562 62.1921 57.7859V57.7859C60.4991 59.5301 59.2236 61.65 58.4652 63.9802C57.7068 66.3105 57.486 68.7881 57.8199 71.2198" stroke="#A29EC0" stroke-width="2" stroke-linecap="round" stroke-linejoin="round"/>
    <path d="M85.0468 58.2497C83.3721 56.5308 81.3616 55.1911 79.1462 54.3176" stroke="#A29EC0" stroke-width="2" stroke-linecap="round" stroke-linejoin="round"/>
    <defs>
        <filter id="filter0_d" x="0" y="0" width="140" height="140" filterUnits="userSpaceOnUse" color-interpolation-filters="sRGB">
            <feFlood flood-opacity="0" result="BackgroundImageFix"/>
            <feColorMatrix in="SourceAlpha" type="matrix" values="0 0 0 0 0 0 0 0 0 0 0 0 0 0 0 0 0 0 127 0" result="hardAlpha"/>
            <feOffset dy="4"/>
            <feGaussianBlur stdDeviation="10"/>
            <feColorMatrix type="matrix" values="0 0 0 0 0.835294 0 0 0 0 0.843137 0 0 0 0 0.886275 0 0 0 1 0"/>
            <feBlend mode="normal" in2="BackgroundImageFix" result="effect1_dropShadow"/>
            <feBlend mode="normal" in="SourceGraphic" in2="effect1_dropShadow" result="shape"/>
        </filter>
    </defs>
</svg>

<svg xmlns="http://www.w3.org/2000/svg" width="100" height="100" viewBox="0 0 100 100"><defs><style>.a{fill:#fff;}.b{fill:none;stroke:#a29ec0;stroke-linecap:round;stroke-linejoin:round;stroke-width:2px;}.c{fill:#b88dfc;}</style></defs><circle class="a" cx="50" cy="50" r="50"/><path class="b" d="M87.08,79.53,99.33,92a2.57,2.57,0,0,1,.5.76,2.43,2.43,0,0,1,.17.89,2.28,2.28,0,0,1-.67,1.64,2.25,2.25,0,0,1-3.22,0L84,83.1" transform="translate(-20 -16)"/><path class="b" d="M42.87,47V36.48L40,39.42" transform="translate(-20 -16)"/><path class="b" d="M50.75,47a3,3,0,0,1-2.13-.9,3.1,3.1,0,0,1-.88-2.18v-4.8A3,3,0,0,1,48,37.89a3,3,0,0,1,.65-1,2.91,2.91,0,0,1,2.13-.9h0a3,3,0,0,1,2.12.9,3.1,3.1,0,0,1,.88,2.17V43.9a3,3,0,0,1-.89,2.15,2.93,2.93,0,0,1-2.11.9Z" transform="translate(-20 -16)"/><path class="b" d="M61.26,47V36.48l-2.87,2.94" transform="translate(-20 -16)"/><path class="b" d="M69.13,47a3,3,0,0,1-2.12-.9,3.1,3.1,0,0,1-.89-2.18v-4.8a3.14,3.14,0,0,1,.23-1.18,3,3,0,0,1,.66-1,2.91,2.91,0,0,1,2.12-.9h0a3,3,0,0,1,2.12.9,3.13,3.13,0,0,1,.88,2.17V43.9a3.11,3.11,0,0,1-.88,2.15,3,3,0,0,1-2.12.9Z" transform="translate(-20 -16)"/><path class="b" d="M42.87,65.3V54.84L40,57.77" transform="translate(-20 -16)"/><path class="b" d="M50.75,65.3a3,3,0,0,1-2.13-.9,3.07,3.07,0,0,1-.88-2.17V57.42A2.94,2.94,0,0,1,48,56.25a3.14,3.14,0,0,1,.65-1,3,3,0,0,1,1-.66,2.89,2.89,0,0,1,1.16-.23h0a3,3,0,0,1,2.12.89,3.13,3.13,0,0,1,.88,2.17v4.83a3.06,3.06,0,0,1-.89,2.16,3,3,0,0,1-2.11.89Z" transform="translate(-20 -16)"/><path class="c" d="M80.15,62.91a9.49,9.49,0,0,0-4.75-2.69,9.23,9.23,0,0,0-5.4.42,9.52,9.52,0,0,1,3.44,2.27,9.65,9.65,0,0,1,.27,13.43,8.75,8.75,0,0,1-3,2,8.86,8.86,0,0,0,5.14.46,9,9,0,0,0,4.56-2.47A9.66,9.66,0,0,0,80.15,62.91Z" transform="translate(-20 -16)"/><path class="b" d="M85.05,58.24l5.9-6" transform="translate(-20 -16)"/><path class="b" d="M79.14,54.32l4-4.06" transform="translate(-20 -16)"/><path class="b" d="M88.87,64.22l3.88-4" transform="translate(-20 -16)"/><path class="b" d="M94.22,48.88a2.34,2.34,0,0,1,.64,1.21,2.38,2.38,0,0,1-.14,1.37,2.33,2.33,0,0,1-.85,1.06,2.26,2.26,0,0,1-2.57,0,2.33,2.33,0,0,1-.85-1.06,2.37,2.37,0,0,1-.13-1.37,2.33,2.33,0,0,1,1.38-1.72,2.29,2.29,0,0,1,2.52.51Z" transform="translate(-20 -16)"/><path class="b" d="M86.39,46.92a2.41,2.41,0,0,1,.63,1.2,2.37,2.37,0,0,1-.13,1.37,2.25,2.25,0,0,1-.85,1,2.28,2.28,0,0,1-1.28.4,2.23,2.23,0,0,1-1.28-.4,2.33,2.33,0,0,1-.86-1,2.46,2.46,0,0,1-.13-1.37,2.35,2.35,0,0,1,.64-1.2,2.27,2.27,0,0,1,3.26,0Z" transform="translate(-20 -16)"/><path class="b" d="M94.38,60.94a2.36,2.36,0,1,0-2.31-2.36A2.33,2.33,0,0,0,94.38,60.94Z" transform="translate(-20 -16)"/><path class="b" d="M62.64,81.12l-5.9,6" transform="translate(-20 -16)"/><path class="b" d="M58.79,75.09l-4,4.07" transform="translate(-20 -16)"/><path class="b" d="M68.49,85l-3.88,4" transform="translate(-20 -16)"/><path class="b" d="M55.1,91.18a2.36,2.36,0,1,0-2.31-2.36A2.33,2.33,0,0,0,55.1,91.18Z" transform="translate(-20 -16)"/><path class="b" d="M51.55,82.49a2.2,2.2,0,0,0,1.18.65A2.28,2.28,0,0,0,54.07,83a2.37,2.37,0,0,0,1-.87,2.41,2.41,0,0,0,0-2.63,2.37,2.37,0,0,0-1-.87,2.28,2.28,0,0,0-2.52.52,2.38,2.38,0,0,0,0,3.33Z" transform="translate(-20 -16)"/><path class="b" d="M63,93a2.36,2.36,0,1,0-2.31-2.36A2.33,2.33,0,0,0,63,93Z" transform="translate(-20 -16)"/><path class="b" d="M68.49,85a15.6,15.6,0,0,0,17-3.45,16.31,16.31,0,0,0,4.23-8.16,16.51,16.51,0,0,0-.85-9.2" transform="translate(-20 -16)"/><path class="b" d="M73.8,82.3c6.39,0,11.57-5.5,11.57-12.28S80.19,57.74,73.8,57.74,62.24,63.24,62.24,70,67.42,82.3,73.8,82.3Z" transform="translate(-20 -16)"/><path class="b" d="M58.79,75.09a17.38,17.38,0,0,0,3.85,6" transform="translate(-20 -16)"/><path class="b" d="M75.35,53.33a15.24,15.24,0,0,0-7.09.65,15.55,15.55,0,0,0-6.07,3.81h0A15.88,15.88,0,0,0,58.47,64a16.3,16.3,0,0,0-.65,7.24" transform="translate(-20 -16)"/><path class="b" d="M85.05,58.25a16.92,16.92,0,0,0-5.9-3.93" transform="translate(-20 -16)"/></svg>
